!!!COM: Claude Goudimel
!!!OMD: Psalm 60: O Dieu, qui nous as deboutez
**kern	**kern	**kern	**kern
*part4	*part3	*part2	*part1
*staff4	*staff3	*staff2	*staff1
*clefF4	*clefGv2	*clefG2	*clefG2
*k[f#]	*k[f#]	*k[f#]	*k[f#]
!!LO:TX:omd:t=
*M4/4	*M4/4	*M4/4	*M4/4
=1	=1	=1	=1
2C	2E	2c	2g
4AA	4A	4e	4cc
4C	4G	4e	4cc
=2	=2	=2	=2
4GG	4G	4d	4b
4D	4F#	4d	2a
2E	2G	2B	.
.	.	.	[4g
=3	=3	=3	=3
2D	2A	2d	4g]
.	.	.	4f#
2GG	2B	2d	2g
=4	=4	=4	=4
2r	2r	2r	2r
2G	2B	2d	2g
=5	=5	=5	=5
4E	4B	4e	4g
4C	4e	4g	4cc
4E	4e	4g	4b
4Fn	4c	[4a	4a
=6	=6	=6	=6
2E	2e	4a]	2b
.	.	4g#X	.
2A	2e	2a	2cc
=7	=7	=7	=7
2G	2g	2b	2dd
2r	2r	2r	2r
=8	=8	=8	=8
2GG	2d	2g	2b
4GG	4B	4g	4dd
4BB	4B	4f#	4dd
=9	=9	=9	=9
4C	4G	4e	4cc
4GG	4d	4g	4b
2D	2d	2f#	2a
=10	=10	=10	=10
2GG	2B	2d	2g
2D	2A	2d	2f#
=11	=11	=11	=11
2r	2r	2r	2r
2D	2A	2d	2d
=12	=12	=12	=12
4AA	4A	4c#X	4e
4D	4A	4d	4f#
4C	4c	4e	4g
4AA	4c	4e	[4a
=13	=13	=13	=13
2C	2c	2e	4a]
.	.	.	2g
2D	2A	2d	.
.	.	.	4f#
=14	=14	=14	=14
2GG	2B	2d	2g
2r	2r	2r	2r
=15	=15	=15	=15
2G	2d	2g	2b
4G	4d	4g	4b
4D	4d	4f#	4a
=16	=16	=16	=16
2E	2B	2e	2g
2C	2E	2e	2cc
=17	=17	=17	=17
4GG	4G	4d	4b
4C	4E	4e	4a
2BB	2F#	2e-X	2b
=18	=18	=18	=18
2r	2r	2r	2r
2G	2d	2g	2b
=19	=19	=19	=19
4G	4d	4g	4b
4D	4d	4f#	4a
2E	2B	2e	2g
=20	=20	=20	=20
2C	2E	2e	2cc
4GG	4G	4d	4b
4C	4E	4e	4a
=21	=21	=21	=21
2BB	2F#	2e-X	2b
2r	2r	2r	2r
=22	=22	=22	=22
2GG	2d	2g	2b
4BB	4B	4f#	4dd
4C	4G	4en	4cc
=23	=23	=23	=23
2GG	2d	2g	2b
2AA	2c	4f#	2a
.	.	[4e	.
=24	=24	=24	=24
4C	4c	4e]	4g
4D	4A	2d	4f#
2AA	2A	.	2e
.	.	4c#X	.
=25	=25	=25	=25
2D	2A	2d	2d
2r	2r	2r	2r
=26	=26	=26	=26
2C	2c	2e	2g
4AA	4c	4e	4a
4GG	4d	4g	4b
=27	=27	=27	=27
2C	2c	2e	2g
2AA	2e	2a	2cc
=28	=28	=28	=28
4BB	4d	4f#	4b
4GG	4d	2g	4b
2D	2d	.	2a
.	.	4f#	.
=29	=29	=29	=29
1GG	1d	1g	1g
==	==	==	==
*-	*-	*-	*-
!!!software: music21 v.9.7.1
!!!software: music21 v.8.3.0
!!!RDF**kern: > = above
!!!RDF**kern: < = below
